X:1
T:Glory Song
T:Charles Hutchinson Gabriel, 1900
T:Glory Song
T:Public Domain
C:Charles Hutchinson Gabriel, 1900
Z:Public Domain
%%score ( 1 2 ) ( 3 4 )
L:1/8
M:3/4
K:Ab
V:1 treble 
V:2 treble 
V:3 bass 
V:4 bass 
V:1
 [CE]2 [CA]2 [CG]2 | [CF]2 [CE]2 [B,D]2 | [A,C]2 [CE]2 [CA]2 | [Ec]6 | [Ec]2 [DB]2 [D=A]2 | %5
 [Ec]2 [DB]2 [DG]2 | [DB]2 [CA]2 [DF]2 | [CE]6 | [B,E]2 [B,=D]2 [B,E]2 | [=DF]2 [EG]2 [FA]2 | %10
 [EG]2 [EG]2 [FA]2 | [GB]6 | [GB]2 [B=d]2 [Ac]2 | [GB]2 [FA]2 [EG]2 | [=DA]2 [DG]2 [DF]2 | %15
 (E2 [CE]2 [DE]2) || D2 c2 c2 c2 | (E2 A2 F2) | c2 B2 c2 | (E2 G2 F2) | d2 d2 d2 | (E2 G2 F2) | %22
 d2 e2 B2 | (E2 A2 F2) | e2 c2 B2 | E2 [DB]2 [Ec]2 | [Fd]2 [DF]2 [FA]2 | [=Ec]6 | %28
 [DB]2 [DA]2 [DF]2 | E2 [Ee]2 [Fdf]2 | [Ece]2 [CEc]2 [DBd]2 | [CAc]6 |] %32
V:2
 x6 | x6 | x6 | x6 | x6 | x6 | x6 | x6 | x6 | x6 | x6 | x6 | x6 | x6 | x6 | x6 || x2 E6- | c6 | %18
 E6 | d6 | E6 | d6 | E6 | c6 | E6- | A2 x4 | x6 | x6 | x6 | x6 | x6 | x6 |] %32
V:3
 [A,,A,]2 [A,,A,]2 [A,,A,]2 | [A,,A,]2 [A,,A,]2 [A,,E,]2 | [A,,E,]2 [A,,A,]2 [A,,E,]2 | [A,,A,]6 | %4
 [E,A,]2 [E,G,]2 [E,G,]2 | [E,G,]2 [E,G,]2 [E,B,]2 | [A,,A,]2 [A,,A,]2 [A,,A,]2 | [A,,A,]6 | %8
 [B,,G,]2 [B,,F,]2 [B,,G,]2 | [B,,B,]2 [B,,B,]2 [B,,B,]2 | [E,B,]2 [E,B,]2 [E,B,]2 | [E,B,]6 | %12
 [B,,B,]2 [B,,B,]2 [B,,B,]2 | [B,,B,]2 [B,,B,]2 [B,,B,]2 | [B,,C]2 [B,,B,]2 [B,,A,]2 | %15
 E,2- [E,-A,]2 [E,B,]2 || [A,,A,]2 [C,A,]2 [E,A,]2 x2 | A,6 | A,2 [G,D]2 [A,C]2 | (B,4 A,2) | %20
 [E,G,]2 [E,G,]2 [E,G,]2 | (G,2 B,2 A,2) | [E,G,]2 [E,G,]2 [E,G,]2 | A,6 | [A,C]2 A,2 [A,D]2 | %25
 [A,C]2 A,2 A,2 | [D,A,]2 [D,A,]2 [D,F,]2 | [C,G,]6 | [D,F,]2 [D,F,]2 [D,A,]2 | %29
 [C,A,]2 [C,A,]2 [D,A,]2 | [E,A,]2 [E,A,]2 [E,G,]2 | [A,,A,]6 |] %32
V:4
 x6 | x6 | x6 | x6 | x6 | x6 | x6 | x6 | x6 | x6 | x6 | x6 | x6 | x6 | x6 | x6 || x8 | A,6 | x6 | %19
 E,6 | x6 | E,6 | x6 | A,6 | x2 A,2 x2 | x2 A,2 A,2 | x6 | x6 | x6 | x6 | x6 | x6 |] %32

